X:167
T:Plumb Pudding
M:2/4
L:1/8
B:Thompson's Compleat Collection of 200 Favourite Country Dances, vol. 1 (London, 1757)
Z:Transcribed and edited by Flynn Titford-Mock, 2007
Z:abc's:AK/Fiddler's Companion
K:Bb
B2 (3dcB|g>edc|B2 (3dcB|AFAF|B2 (3dcB|g>edc|(3def (3dcB|"tr"c2 B2:|
|:B2 (3dcB|bBbB|B2 (3dcB|AFAF|B2 (3dcB|gedc|dfdB|"tr"c2 B2:|

